packages/foundations/assets/icons/functional/images/notification/bell_disabled_32.svg

<svg width="32" height="32" viewBox="0 0 32 32" fill="none" xmlns="http://www.w3.org/2000/svg">
<g clip-path="url(#clip0_187_133)">
<path fill-rule="evenodd" clip-rule="evenodd" d="M24.4459 12.4961C24.611 13.2569 24.7054 14.0733 24.7236 14.939L24.7268 15.2501V19.0001C24.7268 21.6251 25.383 22.9376 27.258 24.1564C27.5393 24.3439 27.7268 24.6564 27.7268 25.0001C27.7268 25.5514 27.3235 25.941 26.8396 25.9938L26.7267 26H20.7268C20.7268 28.2189 18.9456 30 16.7268 30C14.5752 30 12.8352 28.3252 12.7317 26.2004L12.7268 26L10.9419 25.9998L12.9411 24.001L24.1018 24.0001C23.1643 22.6232 22.776 20.9992 22.7312 19.3337L22.7267 19.0001L22.7268 15.2501C22.7268 14.9078 22.7138 14.5757 22.6881 14.2542L24.4459 12.4961ZM16.758 2.00006C17.2514 2.00006 17.6638 2.40428 17.7202 2.88734L17.7268 3.00006V6.06256C19.7667 6.28593 21.4519 7.19748 22.6573 8.65523L26.0423 5.26908C26.4328 4.87856 27.066 4.87856 27.4565 5.26908C27.817 5.62956 27.877 6.2698 27.4565 6.68329C20.2922 13.8513 13.1262 21.0172 5.95859 28.1812C5.56806 28.5717 4.9349 28.5717 4.54437 28.1812C4.18389 27.8207 4.12174 27.1837 4.54437 26.767C5.4853 25.8228 6.42785 24.8806 7.37204 23.9404C8.40676 22.8132 8.69796 21.2844 8.7248 19.3175L8.72691 19.0001L8.72681 15.2501C8.72681 10.1357 11.3379 6.67205 15.4718 6.09432L15.7268 6.06256V3.00006C15.7268 2.47506 16.1079 2.03177 16.6161 2.00053L16.758 2.00006ZM18.7268 26L14.7268 26.0001C14.7268 27.0939 15.633 28.0001 16.7268 28C17.8206 28.0001 18.7268 27.0939 18.7268 26ZM16.7268 8.00006C13.0566 8.00006 10.8232 10.6044 10.7299 14.9633L10.7268 15.2501L10.7269 19.0001C10.7269 19.5769 10.6876 20.1503 10.6005 20.7119L21.2398 10.0709C20.2065 8.73651 18.6675 8.00006 16.7268 8.00006Z" fill="#1A1C1F"/>
</g>
<defs>
<clipPath id="clip0_187_133">
<rect width="32" height="32" fill="white"/>
</clipPath>
</defs>
</svg>

<svg xmlns="http://www.w3.org/2000/svg" width="32" height="32" fill="none"><g clip-path="url(#a)"><path fill="#1A1C1F" fill-rule="evenodd" d="M24.446 12.496c.165.76.26 1.577.278 2.443l.003.311V19c0 2.625.656 3.938 2.531 5.156.281.188.469.5.469.844 0 .551-.404.941-.887.994l-.113.006h-6c0 2.219-1.781 4-4 4a3.987 3.987 0 0 1-3.995-3.8l-.005-.2h-1.785l2-1.999h11.16c-.938-1.378-1.326-3.002-1.37-4.667L22.726 19v-3.75q0-.513-.039-.996zM16.758 2c.493 0 .906.404.962.887l.007.113v3.063c2.04.223 3.725 1.134 4.93 2.592l3.385-3.386a1 1 0 0 1 1.414 0c.361.36.421 1 0 1.414Q16.71 17.435 5.96 28.181a1 1 0 0 1-1.415 0c-.36-.36-.422-.997 0-1.414q1.412-1.416 2.828-2.827c1.035-1.127 1.326-2.656 1.353-4.623L8.727 19v-3.75c0-5.114 2.61-8.578 6.745-9.156l.255-.031V3c0-.525.38-.968.89-1zm1.969 24h-4c0 1.094.906 2 2 2s2-.906 2-2m-2-18c-3.67 0-5.904 2.604-5.997 6.963l-.003.287V19q.002.867-.127 1.712L21.24 10.07C20.207 8.737 18.668 8 16.727 8" clip-rule="evenodd"/></g><defs><clipPath id="a"><path fill="#fff" d="M0 0h32v32H0z"/></clipPath></defs></svg>
